X:1
T: The Coney Walk
N:
C:
S:aka Number Three
A:
O:
R:
M:6/8
K:D
I:speed 165
%W: A1
% voice 1 (1 lines, 41 notes)
K:D
M:6/8
L:1/16
D2 E2 D2 A4 A2 d2 e2 d2 c6 B2 c2 B2 A2 B2 A2 G2 A2 G2 F4 G2 |A2 D2 D2 B2 D2 D2 A2 D2 D2 B2 D2 D2 A2 D2 D2 B2 c2 d2 E4 D2 D6 |
%W: A2
% voice 1 (1 lines, 41 notes)
D2 E2 D2 A4 A2 d2 e2 d2 c6 B2 c2 B2 A2 B2 A2 G2 A2 G2 F4 G2 |A2 D2 D2 B2 D2 D2 A2 D2 D2 B2 D2 D2 A2 D2 D2 B2 c2 d2 E4 D2 D6 |
%W: B1
% voice 1 (1 lines, 43 notes)
g2 a2 g2 f2 g2 f2 e2 f2 e2 c4 d2 e2 d2 c2 B2 c2 d2 B4 A2 A4 A2 |d2 A2 A2 e2 A2 A2 f2 A2 A2 g2 A2 A2 a2 A2 A2 g2 A2 A2 f2 g2 f2 e6 |
%W: A3
% voice 1 (1 lines, 41 notes)
D2 E2 D2 A4 A2 d2 e2 d2 c6 B2 c2 B2 A2 B2 A2 G2 A2 G2 F4 G2 |A2 D2 D2 B2 D2 D2 A2 D2 D2 B2 D2 D2 A2 D2 D2 B2 c2 d2 E4 D2 D6 |
%W: A4
% voice 1 (1 lines, 41 notes)
D2 E2 D2 A4 A2 d2 e2 d2 c6 B2 c2 B2 A2 B2 A2 G2 A2 G2 F4 G2 |A2 D2 D2 B2 D2 D2 A2 D2 D2 B2 D2 D2 A2 D2 D2 B2 c2 d2 E4 D2 D6 |
%W: B2
% voice 1 (1 lines, 43 notes)
g2 a2 g2 f2 g2 f2 e2 f2 e2 c4 d2 e2 d2 c2 B2 c2 d2 B4 A2 A4 A2 |d2 A2 A2 e2 A2 A2 f2 A2 A2 g2 A2 A2 a2 A2 A2 g2 A2 A2 f2 g2 e2 d6 ||
